Material Dark/ZoomOut.svg

<?xml version="1.0" encoding="utf-8"?>
<svg width="24" height="24" viewBox="0 0 24 24" xmlns="http://www.w3.org/2000/svg">
  <path fill="none" d="M0 0h24v24H0V0z"/>
  <path d="M15.5 14h-.79l-.28-.27C15.41 12.59 16 11.11 16 9.5 16 5.91 13.09 3 9.5 3S3 5.91 3 9.5 5.91 16 9.5 16c1.61 0 3.09-.59 4.23-1.57l.27.28v.79l5 4.99L20.49 19l-4.99-5zm-6 0C7.01 14 5 11.99 5 9.5S7.01 5 9.5 5 14 7.01 14 9.5 11.99 14 9.5 14zM7 9h5v1H7z" style="fill: rgb(255, 255, 255);"/>
</svg>

<?xml version="1.0" encoding="utf-8"?>
<svg version="1.1" width="24" height="24" viewBox="0 0 24 24" xmlns="http://www.w3.org/2000/svg">
  <path d="M15.5,14H14.71L14.43,13.73C15.41,12.59 16,11.11 16,9.5A6.5,6.5 0 0,0 9.5,3A6.5,6.5 0 0,0 3,9.5A6.5,6.5 0 0,0 9.5,16C11.11,16 12.59,15.41 13.73,14.43L14,14.71V15.5L19,20.5L20.5,19L15.5,14M9.5,14C7,14 5,12 5,9.5C5,7 7,5 9.5,5C12,5 14,7 14,9.5C14,12 12,14 9.5,14M7,9H12V10H7V9Z" style="fill: rgb(255, 255, 255);"/>
</svg>
